src/home/img/analytics-presence.svg

<svg height="203" viewBox="0 0 172 203" width="172" xmlns="http://www.w3.org/2000/svg" xmlns:xlink="http://www.w3.org/1999/xlink"><defs><circle id="a" cx="60" cy="60" r="60"/><mask id="b" fill="#fff" height="120" width="120" x="0" y="0"><use xlink:href="#a"/></mask><circle id="c" cx="60" cy="60" r="60"/><mask id="d" fill="#fff" height="120" width="120" x="0" y="0"><use xlink:href="#c"/></mask><circle id="e" cx="60" cy="60" r="60"/><mask id="f" fill="#fff" height="120" width="120" x="0" y="0"><use xlink:href="#e"/></mask><circle id="g" cx="60" cy="60" r="60"/><mask id="h" fill="#fff" height="120" width="120" x="0" y="0"><use xlink:href="#g"/></mask><circle id="i" cx="60" cy="60" r="60"/><mask id="j" fill="#fff" height="120" width="120" x="0" y="0"><use xlink:href="#i"/></mask></defs><g fill="none" fill-rule="evenodd" transform="translate(-11 -14)"><rect height="230" rx="5" width="246"/><rect fill="#2a2f45" height="9" opacity=".8" rx="4.5" width="78" x="11" y="14"/><g fill="#8792a2"><rect height="6" opacity=".7" rx="3" width="38" x="28" y="36"/><rect height="6" opacity=".7" rx="3" width="46" x="28" y="52"/><rect height="6" opacity=".7" rx="3" width="60" x="28" y="68"/><rect height="6" opacity=".7" rx="3" width="60" x="28" y="84"/><rect height="6" opacity=".7" rx="3" width="36" x="28" y="100"/></g><rect fill="#009688" height="12" rx="6" width="12" x="11" y="33"/><rect fill="#a1d8d3" height="12" rx="6" width="12" x="11" y="49"/><rect fill="#c3d2ee" height="12" rx="6" width="12" x="11" y="65"/><rect fill="#5c84d1" height="12" rx="6" width="12" x="11" y="81"/><rect fill="#1851be" height="12" rx="6" width="12" x="11" y="97"/><path d="m17 65c3.3137085 0 6 2.6862915 6 6s-2.6862915 6-6 6-6-2.6862915-6-6 2.6862915-6 6-6z" fill="#c3d2ee"/><path d="m17 81c3.3137085 0 6 2.6862915 6 6s-2.6862915 6-6 6-6-2.6862915-6-6 2.6862915-6 6-6z" fill="#5c84d1"/><path d="m17 97c3.3137085 0 6 2.6862915 6 6 0 3.313708-2.6862915 6-6 6s-6-2.686292-6-6c0-3.3137085 2.6862915-6 6-6z" fill="#1851be"/><g opacity=".5" transform="translate(62.962 96.962)"><path d="m60 120c33.137085 0 60-26.862915 60-60s-26.862915-60-60-60-60 26.862915-60 60 26.862915 60 60 60z"/><g stroke-linejoin="round" stroke-width="24"><use mask="url(#b)" stroke="#c3d2ee" stroke-dasharray="330" xlink:href="#a"/><use mask="url(#d)" stroke="#5c84d1" stroke-dasharray="265" xlink:href="#c"/><use mask="url(#f)" stroke="#1851be" stroke-dasharray="250" xlink:href="#e"/><use mask="url(#h)" stroke="#a1d8d3" stroke-dasharray="235" xlink:href="#g"/><use mask="url(#j)" stroke="#009688" stroke-dasharray="165" xlink:href="#i"/></g></g></g></svg>

<svg xmlns="http://www.w3.org/2000/svg" xmlns:xlink="http://www.w3.org/1999/xlink" width="172" height="203" viewBox="0 0 172 203">
  <defs>
    <circle id="analytics-presence-a" cx="60" cy="60" r="60"/>
    <mask id="analytics-presence-f" width="120" height="120" x="0" y="0" fill="#fff" maskContentUnits="userSpaceOnUse" maskUnits="objectBoundingBox">
      <use xlink:href="#analytics-presence-a"/>
    </mask>
    <circle id="analytics-presence-b" cx="60" cy="60" r="60"/>
    <mask id="analytics-presence-g" width="120" height="120" x="0" y="0" fill="#fff" maskContentUnits="userSpaceOnUse" maskUnits="objectBoundingBox">
      <use xlink:href="#analytics-presence-b"/>
    </mask>
    <circle id="analytics-presence-c" cx="60" cy="60" r="60"/>
    <mask id="analytics-presence-h" width="120" height="120" x="0" y="0" fill="#fff" maskContentUnits="userSpaceOnUse" maskUnits="objectBoundingBox">
      <use xlink:href="#analytics-presence-c"/>
    </mask>
    <circle id="analytics-presence-d" cx="60" cy="60" r="60"/>
    <mask id="analytics-presence-i" width="120" height="120" x="0" y="0" fill="#fff" maskContentUnits="userSpaceOnUse" maskUnits="objectBoundingBox">
      <use xlink:href="#analytics-presence-d"/>
    </mask>
    <circle id="analytics-presence-e" cx="60" cy="60" r="60"/>
    <mask id="analytics-presence-j" width="120" height="120" x="0" y="0" fill="#fff" maskContentUnits="userSpaceOnUse" maskUnits="objectBoundingBox">
      <use xlink:href="#analytics-presence-e"/>
    </mask>
  </defs>
  <g fill="none" fill-rule="evenodd" transform="translate(-11 -14)">
    <rect width="246" height="230" rx="5"/>
    <rect width="78" height="9" x="11" y="14" fill="#2A2F45" opacity=".8" rx="4.5"/>
    <rect width="38" height="6" x="28" y="36" fill="#8792A2" opacity=".7" rx="3"/>
    <rect width="46" height="6" x="28" y="52" fill="#8792A2" opacity=".7" rx="3"/>
    <rect width="60" height="6" x="28" y="68" fill="#8792A2" opacity=".7" rx="3"/>
    <rect width="60" height="6" x="28" y="84" fill="#8792A2" opacity=".7" rx="3"/>
    <rect width="36" height="6" x="28" y="100" fill="#8792A2" opacity=".7" rx="3"/>
    <rect width="12" height="12" x="11" y="33" fill="#009688" rx="6"/>
    <rect width="12" height="12" x="11" y="49" fill="#A1D8D3" rx="6"/>
    <rect width="12" height="12" x="11" y="65" fill="#C3D2EE" rx="6"/>
    <rect width="12" height="12" x="11" y="81" fill="#5C84D1" rx="6"/>
    <rect width="12" height="12" x="11" y="97" fill="#1851BE" rx="6"/>
    <path fill="#C3D2EE" d="M17,65 C20.3137085,65 23,67.6862915 23,71 C23,74.3137085 20.3137085,77 17,77 C13.6862915,77 11,74.3137085 11,71 C11,67.6862915 13.6862915,65 17,65 Z"/>
    <path fill="#5C84D1" d="M17,81 C20.3137085,81 23,83.6862915 23,87 C23,90.3137085 20.3137085,93 17,93 C13.6862915,93 11,90.3137085 11,87 C11,83.6862915 13.6862915,81 17,81 Z"/>
    <path fill="#1851BE" d="M17,97 C20.3137085,97 23,99.6862915 23,103 C23,106.313708 20.3137085,109 17,109 C13.6862915,109 11,106.313708 11,103 C11,99.6862915 13.6862915,97 17,97 Z"/>
    <g opacity=".5" transform="translate(62.962 96.962)">
      <path d="M60,120 C93.137085,120 120,93.137085 120,60 C120,26.862915 93.137085,3.41060513e-13 60,3.41060513e-13 C26.862915,3.41060513e-13 1.36424205e-12,26.862915 1.36424205e-12,60 C1.36424205e-12,93.137085 26.862915,120 60,120 Z"/>
      <use stroke="#C3D2EE" stroke-dasharray="330" stroke-linejoin="round" stroke-width="24" mask="url(#analytics-presence-f)" xlink:href="#analytics-presence-a"/>
      <use stroke="#5C84D1" stroke-dasharray="265" stroke-linejoin="round" stroke-width="24" mask="url(#analytics-presence-g)" xlink:href="#analytics-presence-b"/>
      <use stroke="#1851BE" stroke-dasharray="250" stroke-linejoin="round" stroke-width="24" mask="url(#analytics-presence-h)" xlink:href="#analytics-presence-c"/>
      <use stroke="#A1D8D3" stroke-dasharray="235" stroke-linejoin="round" stroke-width="24" mask="url(#analytics-presence-i)" xlink:href="#analytics-presence-d"/>
      <use stroke="#009688" stroke-dasharray="165" stroke-linejoin="round" stroke-width="24" mask="url(#analytics-presence-j)" xlink:href="#analytics-presence-e"/>
    </g>
  </g>
</svg>
